svg/300/sharp/heat_pump_balance-fill.svg

<svg xmlns="http://www.w3.org/2000/svg" width="48" height="48" viewBox="0 -960 960 960"><path d="M170.001-672.921v428.073H379.23v-382.69h118.078v382.69h209.23v-422.69h153.694l-65.693 63.308 31.615 32.615L945.768-690.23 826.154-809.844l-31.615 32.614 64.308 64.309H661.154v422.69H542.692v-382.69H333.847v382.69H215.384v-382.69h-45.383Zm-110 556.92v-365.768H900v365.768H60.001Z"/></svg>

<svg xmlns="http://www.w3.org/2000/svg" width="48" height="48" viewBox="0 -960 960 960"><path d="M170-672.92v428.07h209.23v-382.69h118.08v382.69h209.23v-422.69h153.69l-65.69 63.31 31.61 32.62 119.62-118.62-119.62-119.61-31.61 32.61 64.31 64.31h-197.7v422.69H542.69v-382.69H333.85v382.69H215.38v-382.69H170ZM60-116v-365.77h840V-116H60Z"/></svg>
